!!!OTL: 1738. Kukkuk (Vexirspiel).
!!!ARE: Europa, Mitteleuropa, Deutschland
!!!SCT: E1738
!!!TXL: @@DE
!!!YEM: Copyright 1995, estate of Helmut Schaffrath.
**kern	**text
*ICvox	*
*M2/4	*
*k[f#]	*
*G:	*
!LO:TX:a:t=Mäßig.	!
{4dd	Der
=1	=1
8b	Kuk-
8b	-kuk
8b	auf
8b	dem
=2	=2
8ddL	Ʒau-
8ccJ	.
4a}	-ne
=3	=3
{8g	Sem
8g	bam-
8g	-ba
16g	ſa-
16g	-la-
=4	=4
8a	-du,
16f#	ſa-
16f#	-la-
4d	-den,
=5	=5
4r}	.
{4dd	der
=6	=6
8b	Kuk-
8b	-kuk
8b	auf
8b	dem
=7	=7
8ddL	Bau-
8ccJ	.
4a	-me
=8	=8
4g}	ſaß.
==	==
!!!AGN: Scherz -, Spiel - Lied, Pfaenderspiel, Vexierspiel
!!!ONB: ESAC (Essen Associative Code) Database: ERK3
!!!AMT: simple duple
!!!AIN: vox
!!!EED: Helmut Schaffrath
!!!EEV: 1.0
!!!GTL: Scherz-, Spiel- und Spottlieder.
!!!URL-scan: https://rosdok.uni-rostock.de/mcrviewer/recordIdentifier/rosdok_ppn745177999/iview2/phys_0530.iview2?x=-449.8344612962892&y=1091.03557263338&scale=0.47549036216460333&rotation=0&layout=singlePageLayout
!!!ENC: Anna Maria Matuszewska
!!!EEV: 2025/08/01
*-	*-
